svgs/light/chart-gantt.svg

<svg xmlns="http://www.w3.org/2000/svg" viewBox="0 0 512 512"><!--! Font Awesome Pro 6.5.1 by @fontawesome - https://fontawesome.com License - https://fontawesome.com/license (Commercial License) Copyright 2023 Fonticons, Inc. --><path d="M16 32c8.8 0 16 7.2 16 16V400c0 26.5 21.5 48 48 48H496c8.8 0 16 7.2 16 16s-7.2 16-16 16H80c-44.2 0-80-35.8-80-80V48c0-8.8 7.2-16 16-16zM128 144c0-8.8 7.2-16 16-16l128 0c8.8 0 16 7.2 16 16s-7.2 16-16 16l-128 0c-8.8 0-16-7.2-16-16zm80 80H368c8.8 0 16 7.2 16 16s-7.2 16-16 16H208c-8.8 0-16-7.2-16-16s7.2-16 16-16zm160 96h96c8.8 0 16 7.2 16 16s-7.2 16-16 16H368c-8.8 0-16-7.2-16-16s7.2-16 16-16z"/></svg>

<svg xmlns="http://www.w3.org/2000/svg" viewBox="0 0 512 512"><!--! Font Awesome Pro 6.1.1 by @fontawesome - https://fontawesome.com License - https://fontawesome.com/license (Commercial License) Copyright 2022 Fonticons, Inc. --><path d="M16 32C24.84 32 32 39.16 32 48V400C32 426.5 53.49 448 80 448H496C504.8 448 512 455.2 512 464C512 472.8 504.8 480 496 480H80C35.82 480 0 444.2 0 400V48C0 39.16 7.164 32 16 32zM128 144C128 135.2 135.2 128 144 128L272 128C280.8 128 288 135.2 288 144C288 152.8 280.8 160 272 160L144 160C135.2 160 128 152.8 128 144zM368 224C376.8 224 384 231.2 384 240C384 248.8 376.8 256 368 256H208C199.2 256 192 248.8 192 240C192 231.2 199.2 224 208 224H368zM464 320C472.8 320 480 327.2 480 336C480 344.8 472.8 352 464 352H368C359.2 352 352 344.8 352 336C352 327.2 359.2 320 368 320H464z"/></svg>
